X: 1
T: Barren Rocks of Aden
P: piffero primo a0063
O: cfd bk 2
%R: march
F: http://ancients.sudburymuster.org/mus/ssp/pdf/closingF.pdf
Z: 2019 John Chambers <jc:trillian.mit.edu>
M: 2/4
L: 1/16
K: D
z2 |:\
f3g f2e2 | d2f2 A2d2 | c2e2 A2de | f2A2 d2e2 |\
f3g f2e2 | d2f2 A2d2 | c2e2 A2fe |1 d4 z2de :|2 d4 z2 ||
|: df |\
a3f d2f2 | e2g2 A2ef | gge2 c2e2 | d2f2 A2df |\
a3f d2f2 | e2g2 A2ef | gge2 c2e2 | d4 z2 :: df |\
afdf afdf |
e2g2 A2ef | gece gece | d2f2 A2df |\
afdf afdf | e2g2 A2ef | gge2 c2e2 | d4 z2 :: df |\
afdA Afdf |
afdA Afdf | gecA Aece | gecA Aece |\
afdA Afdf | afdA Afdf | gecA Aece | d4 z2 :|
